icons/editor/heading.svg

<svg width="32" height="32" viewBox="0 0 32 32" xmlns="http://www.w3.org/2000/svg">
    <path fill-rule="evenodd" d="M8 6v20h2v-9h12v9h2V6h-2v9H10V6H8z"/>
</svg>

<svg width="32" height="32" viewBox="0 0 32 32" fill="none" xmlns="http://www.w3.org/2000/svg">
<path fill-rule="evenodd" clip-rule="evenodd" d="M8 6V26H10V17H22V26H24V6H22V15H10V6H8Z" fill="black"/>
</svg>
